icons/evolvere-blue-folders-flat-vivid-dark-fallback/apps/64/ffado.svg

<svg xmlns="http://www.w3.org/2000/svg" viewBox="0 0 64 64" xmlns:xlink="http://www.w3.org/1999/xlink"><g color="#000"><path d="m0 4v30 28l2 2h30 30l2-2v-28-30h-32-32" fill="#aeb4c3"/><path d="m2 0l-2 1v3h19.563 19.563 24.875v-3l-2-1h-22.875-19.563-17.563" fill="#e7ecf0"/></g><path d="m0 3v3l2-2" fill="#f2f5f7"/><path d="m64 6l-2-2 2-1" fill="#ccd1db"/><g transform="translate(-18 17)"><rect width="46" height="4" x="-6" y="46" rx="2" transform="matrix(0 1 1 0 0 0)" fill="#2a3745" color="#000" id="0"/><g color="#000"><path d="m54 18l-4 10-8 1 8 8h12v-2-7-2z" fill="#1b2531" fill-opacity=".114"/><path fill="#7392b8" d="m42 18h12v9h-12z"/><path fill="#42566d" d="m42 20h12v9h-12z"/></g></g><g transform="translate(0 17)"><use xlink:href="#0"/><g color="#000"><path d="m54 0l-4 10-8 1 8 8h12v-2-7-2z" fill="#1b2531" fill-opacity=".114"/><path fill="#7392b8" d="m42 0h12v9h-12z"/><path fill="#42566d" d="m42 2h12v9h-12z"/></g></g><g color="#000"><path d="m6 10v47 1h1 15v-47-1h-1z" fill="#1b2531" fill-opacity=".114"/><path fill="#5e8e34" d="m8 52h12v4h-12z"/><path fill="#788e34" d="m8 42h12v4h-12z"/><path fill="#ac9b3f" d="m8 27h12v4h-12z"/><path fill="#ae6840" d="m8 12h12v4h-12z"/><g transform="scale(1-1)"><path fill="#6c8e34" d="m8-51h12v4h-12z"/><path fill="#adad3f" d="m8-36h12v4h-12z"/><path fill="#ae7e40" d="m8-21h12v4h-12z"/><path fill="#858e34" d="m8-41h12v4h-12z"/><path fill="#ad8f3f" d="m8-26h12v4h-12z"/></g><path fill="#a6ff56" d="m8 52h12v4h-12z"/><path transform="matrix(1 0 0-1 0-5)" fill="#beff40" d="m8-56h12v4h-12z"/><path fill="#cbff44" stroke-width="1" d="m8 42h12v4h-12z"/><path transform="matrix(1 0 0-1 0-15)" fill="#e7ff4e" d="m8-56h12v4h-12z"/></g></svg>

<?xml version="1.0" encoding="UTF-8" standalone="no"?>
<!-- Created with Inkscape (http://www.inkscape.org/) -->

<svg
   xmlns:dc="http://purl.org/dc/elements/1.1/"
   xmlns:cc="http://creativecommons.org/ns#"
   xmlns:rdf="http://www.w3.org/1999/02/22-rdf-syntax-ns#"
   xmlns:svg="http://www.w3.org/2000/svg"
   xmlns="http://www.w3.org/2000/svg"
   xmlns:sodipodi="http://sodipodi.sourceforge.net/DTD/sodipodi-0.dtd"
   xmlns:inkscape="http://www.inkscape.org/namespaces/inkscape"
   width="64"
   height="64"
   id="svg13094"
   version="1.1"
   inkscape:version="0.91+devel r"
   sodipodi:docname="ffado.svg">
  <sodipodi:namedview
     id="base"
     pagecolor="#ffffff"
     bordercolor="#666666"
     borderopacity="1.0"
     inkscape:pageopacity="0"
     inkscape:pageshadow="2"
     inkscape:zoom="11.313709"
     inkscape:cx="35.398652"
     inkscape:cy="30.079528"
     inkscape:document-units="px"
     inkscape:current-layer="g4445"
     showgrid="false"
     inkscape:snap-bbox="true"
     inkscape:bbox-paths="true"
     inkscape:bbox-nodes="true"
     inkscape:snap-bbox-edge-midpoints="true"
     inkscape:snap-bbox-midpoints="true"
     inkscape:object-paths="true"
     inkscape:snap-intersection-paths="true"
     inkscape:object-nodes="true"
     inkscape:snap-smooth-nodes="true"
     inkscape:snap-midpoints="true"
     inkscape:snap-object-midpoints="true"
     inkscape:snap-center="true"
     showguides="false"
     inkscape:guide-bbox="true"
     inkscape:window-width="1920"
     inkscape:window-height="1025"
     inkscape:window-x="-2"
     inkscape:window-y="32"
     inkscape:window-maximized="1"
     inkscape:snap-global="true"
     fit-margin-top="0"
     fit-margin-left="0"
     fit-margin-right="0"
     fit-margin-bottom="0"
     showborder="true"
     inkscape:showpageshadow="false"
     inkscape:snap-page="true">
    <inkscape:grid
       type="xygrid"
       id="grid3075"
       empspacing="5"
       visible="true"
       enabled="true"
       snapvisiblegridlinesonly="true"
       originx="1.6362304e-08px"
       originy="18px" />
    <sodipodi:guide
       orientation="0,1"
       position="-11,30"
       id="guide9148" />
    <sodipodi:guide
       orientation="1,0"
       position="32,70"
       id="guide9150" />
  </sodipodi:namedview>
  <defs
     id="defs13096" />
  <metadata
     id="metadata13099">
    <rdf:RDF>
      <cc:Work
         rdf:about="">
        <dc:format>image/svg+xml</dc:format>
        <dc:type
           rdf:resource="http://purl.org/dc/dcmitype/StillImage" />
        <dc:title></dc:title>
      </cc:Work>
    </rdf:RDF>
  </metadata>
  <path
     id="path6538"
     d="m 0,4 0,30 0,28 2,2 30,0 30,0 2,-2 L 64,34 64,4 32,4 0,4 Z"
     style="color:#000000;display:inline;overflow:visible;visibility:visible;fill:#aeb4c3;fill-opacity:1;fill-rule:nonzero;stroke:none;stroke-width:2.28571415;marker:none;enable-background:accumulate"
     inkscape:connector-curvature="0" />
  <path
     inkscape:connector-curvature="0"
     style="color:#000000;display:inline;overflow:visible;visibility:visible;fill:#e7ecf0;fill-opacity:1;fill-rule:nonzero;stroke:none;marker:none;enable-background:accumulate"
     d="M 2,0 0,1 0,4 19.5625,4 39.125,4 64,4 64,1 62,0 39.125,0 19.5625,0 2,0 Z"
     id="path6688" />
  <g
     id="g3043"
     inkscape:export-filename="folder.png"
     inkscape:export-xdpi="90"
     inkscape:export-ydpi="90"
     transform="translate(-0.62500009,0.082283)" />
  <g
     id="scalable"
     transform="matrix(1.0385892,0,0,1.0385892,1214.7222,1878.8121)"
     inkscape:label="#g3701"
     style="fill:#ffffff" />
  <path
     style="opacity:1;fill:#f2f5f7;fill-opacity:1;fill-rule:nonzero;stroke-width:1;stroke-linecap:butt;stroke-linejoin:miter;stroke-miterlimit:4;stroke-dasharray:none;stroke-dashoffset:0;stroke-opacity:1"
     d="M 0,3 0,6 2,4 Z"
     id="path4298"
     inkscape:connector-curvature="0"
     sodipodi:nodetypes="cccc" />
  <path
     inkscape:connector-curvature="0"
     style="opacity:1;fill:#ccd1db;fill-opacity:1;stroke:none;stroke-width:1;stroke-linecap:butt;stroke-linejoin:miter;stroke-miterlimit:4;stroke-dasharray:none;stroke-dashoffset:0;stroke-opacity:1;marker:none"
     id="path3028"
     d="M 64,6 62,4 64,3 Z" />
  <g
     id="g4445">
    <g
       id="use3134"
       transform="translate(-18,17)">
      <rect
         style="color:#000000;fill:#2a3745;fill-opacity:1;fill-rule:nonzero;stroke:none;stroke-width:2;marker:none;visibility:visible;display:inline;overflow:visible;enable-background:accumulate"
         id="rect3964"
         width="46"
         height="4"
         x="-6"
         y="46"
         rx="1.9999999"
         ry="2"
         transform="matrix(0,1,1,0,0,0)" />
      <path
         style="color:#000000;fill:#1b2531;fill-opacity:0.11449016;fill-rule:nonzero;stroke:none;stroke-width:2;marker:none;visibility:visible;display:inline;overflow:visible;enable-background:accumulate"
         d="m 54,18 -4,10 -8,1 8,8 12,0 0,-2 0,-7 0,-2 z"
         id="path3968"
         inkscape:connector-curvature="0"
         sodipodi:nodetypes="ccccccccc" />
      <rect
         ry="0"
         rx="0"
         y="18"
         x="42"
         height="9"
         width="12"
         id="rect3970"
         style="color:#000000;fill:#7392b8;fill-opacity:1;fill-rule:nonzero;stroke:none;stroke-width:1;marker:none;visibility:visible;display:inline;overflow:visible;enable-background:accumulate" />
      <rect
         ry="0"
         rx="0"
         y="20"
         x="42"
         height="9"
         width="12"
         id="rect3972"
         style="color:#000000;fill:#42566d;fill-opacity:1;fill-rule:nonzero;stroke:none;stroke-width:1;marker:none;visibility:visible;display:inline;overflow:visible;enable-background:accumulate" />
    </g>
    <g
       transform="translate(0,17)"
       id="use3819">
      <rect
         transform="matrix(0,1,1,0,0,0)"
         ry="2"
         rx="1.9999999"
         y="46"
         x="-6"
         height="4"
         width="46"
         id="rect4377"
         style="color:#000000;fill:#2a3745;fill-opacity:1;fill-rule:nonzero;stroke:none;stroke-width:2;marker:none;visibility:visible;display:inline;overflow:visible;enable-background:accumulate" />
      <path
         sodipodi:nodetypes="ccccccccc"
         inkscape:connector-curvature="0"
         id="rect3056"
         d="m 54,0 -4,10 -8,1 8,8 12,0 0,-2 0,-7 0,-2 z"
         style="color:#000000;fill:#1b2531;fill-opacity:0.11449016;fill-rule:nonzero;stroke:none;stroke-width:2;marker:none;visibility:visible;display:inline;overflow:visible;enable-background:accumulate" />
      <rect
         style="color:#000000;fill:#7392b8;fill-opacity:1;fill-rule:nonzero;stroke:none;stroke-width:1;marker:none;visibility:visible;display:inline;overflow:visible;enable-background:accumulate"
         id="rect3091"
         width="12"
         height="9"
         x="42"
         y="0"
         rx="0"
         ry="0" />
      <rect
         style="color:#000000;fill:#42566d;fill-opacity:1;fill-rule:nonzero;stroke:none;stroke-width:1;marker:none;visibility:visible;display:inline;overflow:visible;enable-background:accumulate"
         id="rect3093"
         width="12"
         height="9"
         x="42"
         y="2"
         rx="0"
         ry="0" />
    </g>
    <path
       sodipodi:nodetypes="ccccccccc"
       inkscape:connector-curvature="0"
       id="rect3937"
       d="m 6,10 0,47 0,1 1,0 15,0 0,-47 0,-1 -1,0 z"
       style="color:#000000;display:inline;overflow:visible;visibility:visible;fill:#1b2531;fill-opacity:0.11449016;fill-rule:nonzero;stroke:none;stroke-width:2;marker:none;enable-background:accumulate" />
    <rect
       ry="0"
       rx="0"
       y="52"
       x="8"
       height="4"
       width="12"
       id="rect3908"
       style="color:#000000;display:inline;overflow:visible;visibility:visible;fill:#5e8e34;fill-opacity:1;fill-rule:nonzero;stroke:none;stroke-width:2;marker:none;enable-background:accumulate" />
    <rect
       ry="0"
       rx="0"
       y="42"
       x="8"
       height="4"
       width="12"
       id="rect3912"
       style="color:#000000;display:inline;overflow:visible;visibility:visible;fill:#788e34;fill-opacity:1;fill-rule:nonzero;stroke:none;stroke-width:2;marker:none;enable-background:accumulate" />
    <rect
       ry="0"
       rx="0"
       y="27"
       x="8"
       height="4"
       width="12"
       id="rect3918"
       style="color:#000000;display:inline;overflow:visible;visibility:visible;fill:#ac9b3f;fill-opacity:1;fill-rule:nonzero;stroke:none;stroke-width:2;marker:none;enable-background:accumulate" />
    <rect
       style="color:#000000;display:inline;overflow:visible;visibility:visible;fill:#ae6840;fill-opacity:1;fill-rule:nonzero;stroke:none;stroke-width:2;marker:none;enable-background:accumulate"
       id="rect3906"
       width="12"
       height="4"
       x="8"
       y="12"
       rx="0"
       ry="0" />
    <rect
       transform="scale(1,-1)"
       ry="0"
       rx="0"
       y="-51"
       x="8"
       height="4"
       width="12"
       id="rect3914"
       style="color:#000000;display:inline;overflow:visible;visibility:visible;fill:#6c8e34;fill-opacity:1;fill-rule:nonzero;stroke:none;stroke-width:2;marker:none;enable-background:accumulate" />
    <rect
       transform="scale(1,-1)"
       ry="0"
       rx="0"
       y="-36"
       x="8"
       height="4"
       width="12"
       id="rect3920"
       style="color:#000000;display:inline;overflow:visible;visibility:visible;fill:#adad3f;fill-opacity:1;fill-rule:nonzero;stroke:none;stroke-width:2;marker:none;enable-background:accumulate" />
    <rect
       style="color:#000000;display:inline;overflow:visible;visibility:visible;fill:#ae7e40;fill-opacity:1;fill-rule:nonzero;stroke:none;stroke-width:2;marker:none;enable-background:accumulate"
       id="rect3910"
       width="12"
       height="4"
       x="8"
       y="-21"
       rx="0"
       ry="0"
       transform="scale(1,-1)" />
    <rect
       style="color:#000000;display:inline;overflow:visible;visibility:visible;fill:#858e34;fill-opacity:1;fill-rule:nonzero;stroke:none;stroke-width:2;marker:none;enable-background:accumulate"
       id="rect3916"
       width="12"
       height="4"
       x="8"
       y="-41"
       rx="0"
       ry="0"
       transform="scale(1,-1)" />
    <rect
       style="color:#000000;display:inline;overflow:visible;visibility:visible;fill:#ad8f3f;fill-opacity:1;fill-rule:nonzero;stroke:none;stroke-width:2;marker:none;enable-background:accumulate"
       id="rect3922"
       width="12"
       height="4"
       x="8"
       y="-26"
       rx="0"
       ry="0"
       transform="scale(1,-1)" />
    <g
       id="g3897">
      <rect
         style="color:#000000;fill:#a6ff56;fill-opacity:1;fill-rule:nonzero;stroke:none;stroke-width:2;marker:none;visibility:visible;display:inline;overflow:visible;enable-background:accumulate;opacity:1"
         id="rect3901"
         width="12"
         height="4"
         x="8"
         y="52"
         rx="0"
         ry="0" />
    </g>
    <g
       id="g3934"
       transform="translate(1.6362302e-8,-5)">
      <rect
         transform="scale(1,-1)"
         ry="0"
         rx="0"
         y="-56"
         x="8"
         height="4"
         width="12"
         id="rect3938"
         style="color:#000000;fill:#beff40;fill-opacity:1;fill-rule:nonzero;stroke:none;stroke-width:2;marker:none;visibility:visible;display:inline;overflow:visible;enable-background:accumulate;opacity:1" />
    </g>
    <g
       id="g3960"
       transform="translate(1.6362302e-8,-10)">
      <rect
         ry="0"
         rx="0"
         y="52"
         x="8"
         height="4"
         width="12"
         id="rect3965"
         style="color:#000000;fill:#cbff44;fill-opacity:1;fill-rule:nonzero;stroke:none;stroke-width:2;marker:none;visibility:visible;display:inline;overflow:visible;enable-background:accumulate;opacity:1" />
    </g>
    <g
       transform="translate(1.6362302e-8,-15)"
       id="g3891">
      <rect
         transform="scale(1,-1)"
         ry="0"
         rx="0"
         y="-56"
         x="8"
         height="4"
         width="12"
         id="rect3052"
         style="color:#000000;fill:#e7ff4e;fill-opacity:1;fill-rule:nonzero;stroke:none;stroke-width:2;marker:none;visibility:visible;display:inline;overflow:visible;enable-background:accumulate;opacity:1" />
    </g>
  </g>
</svg>
